src/icons/logos/contentful.svg

<svg width="811" height="220" viewBox="0 0 811 220" fill="none" xmlns="http://www.w3.org/2000/svg">
<g clip-path="url(#clip0_640_499)">
<path d="M80.3956 193.012C76.3307 192.577 72.2423 192.343 68.2126 191.568C57.4896 189.547 47.2627 185.46 38.1016 179.537C37.7776 179.322 37.4676 179.087 37.1735 178.833C37.0795 178.763 37.056 178.61 36.9033 178.281C38.3366 178.093 39.6994 177.929 41.0622 177.718C44.0459 177.251 46.9047 176.188 49.4683 174.593C52.0319 172.998 54.2476 170.904 55.9833 168.435C57.719 165.966 58.9391 163.172 59.5707 160.222C60.2024 157.272 60.2327 154.224 59.6598 151.262C59.5541 150.698 59.2251 149.959 59.6598 149.583C60.0945 149.208 60.8346 149.806 61.3868 150.088C68.4342 153.992 76.3926 155.956 84.4488 155.781C96.3349 155.638 107.704 150.901 116.169 142.564C123.829 135.252 135.295 135.111 142.579 142.259C144.342 143.96 145.748 145.994 146.716 148.242C147.684 150.491 148.195 152.909 148.219 155.357C148.243 157.805 147.78 160.233 146.856 162.5C145.932 164.767 144.566 166.828 142.838 168.563C131.458 179.995 116.982 187.857 101.19 191.181C96.5298 192.06 91.8227 192.671 87.0922 193.012H80.3956Z" fill="currentColor"/>
<path d="M810.002 143.832C809.379 145.354 808.258 146.621 806.823 147.427C805.387 148.232 803.721 148.529 802.096 148.269C800.416 148.116 798.712 148.269 797.02 148.21C796.137 148.232 795.258 148.076 794.437 147.749C793.616 147.422 792.87 146.932 792.244 146.309C791.618 145.686 791.125 144.942 790.795 144.123C790.465 143.303 790.304 142.426 790.324 141.543C790.324 113.796 790.324 86.0447 790.324 58.2896C790.286 56.572 790.931 54.9095 792.118 53.6664C793.305 52.4233 794.937 51.7011 796.656 51.658C799.062 51.5054 801.475 51.5054 803.881 51.658C805.258 51.7274 806.581 52.2138 807.674 53.0524C808.768 53.891 809.58 55.0422 810.002 56.353V143.832Z" fill="currentColor"/>
<path d="M494.771 117.388H469.336C467.21 117.388 467.151 117.493 467.856 119.442C470.852 127.658 479.451 132.611 488.122 131.836C494.286 131.396 500.289 129.668 505.744 126.766C506.55 126.238 507.515 126.009 508.472 126.119C509.429 126.228 510.318 126.669 510.984 127.364C513.523 129.709 515.879 132.244 518.033 134.947C519.913 137.517 519.666 139.008 517.116 140.874C507.024 148.436 494.393 151.801 481.871 150.264C476.932 149.81 472.103 148.533 467.586 146.485C463.486 144.677 459.787 142.075 456.702 138.83C453.616 135.584 451.206 131.759 449.611 127.576C445.322 116.425 444.453 104.958 448.859 93.6897C454.38 79.5344 464.966 71.1891 480.133 69.3228C487.017 68.4247 494.013 69.0212 500.645 71.0717C514.673 75.5084 521.792 85.6496 524.283 99.6171C524.98 103.785 525.243 108.013 525.07 112.235C524.929 115.956 523.484 117.388 519.736 117.399C511.383 117.399 503.042 117.399 494.689 117.399L494.771 117.388ZM486.888 100.004C492.562 100.004 498.237 100.004 503.911 100.004C505.556 100.004 505.815 99.4528 505.321 98.0443C504.18 94.6916 502.025 91.7756 499.153 89.699C495.347 86.9524 491.082 86.612 486.524 86.8351C478.37 87.2576 472.661 91.0957 468.901 98.1617C468.126 99.6171 468.408 100.028 470.076 100.004C475.668 100.004 481.284 100.004 486.888 100.004Z" fill="currentColor"/>
<path d="M317.042 112.798C317.418 126.601 306.269 142.353 290.279 147.846C285.11 149.599 279.631 150.249 274.194 149.756C268.758 149.262 263.485 147.636 258.717 144.982C253.948 142.328 249.789 138.705 246.508 134.346C243.227 129.987 240.897 124.99 239.668 119.676C236.601 106.683 238.493 94.4292 247.046 83.7716C250.172 79.7856 254.091 76.4898 258.556 74.0919C263.02 71.694 267.933 70.2461 272.986 69.8393C283.759 68.7829 293.639 71.013 302.169 77.7738C312.237 85.8022 316.96 96.4832 317.042 112.798ZM297.951 110.298C297.98 108.283 297.838 106.269 297.528 104.277C296.671 100.098 294.51 96.2976 291.357 93.4213C288.204 90.545 284.22 88.7407 279.976 88.267C276.042 87.9462 272.105 88.8563 268.712 90.8711C265.318 92.8859 262.636 95.9056 261.038 99.5114C258.688 104.476 258.618 109.688 259.405 114.97C259.84 117.642 260.826 120.195 262.302 122.467C263.777 124.738 265.709 126.678 267.975 128.164C270.24 129.649 272.791 130.648 275.464 131.096C278.136 131.545 280.873 131.433 283.501 130.768C287.904 129.547 291.749 126.841 294.383 123.11C297.017 119.379 298.278 114.852 297.951 110.298V110.298Z" fill="currentColor"/>
<path d="M77.9051 26.0587C106.876 26.3639 126.59 34.5449 142.944 50.6369C146.482 54.0704 148.51 58.7676 148.581 63.6949C148.653 68.6223 146.762 73.3763 143.326 76.9111C139.889 80.4458 135.187 82.4718 130.255 82.5434C125.323 82.6149 120.565 80.7261 117.027 77.2925C110.514 70.7183 102.228 66.1793 93.1779 64.2288C82.4931 61.9773 71.3555 63.5782 61.7394 68.7477C61.1755 69.0411 60.5646 69.7454 59.9889 69.3932C59.2018 68.912 59.8597 68.0787 59.9889 67.4331C60.5382 64.461 60.4844 61.409 59.8308 58.4581C59.1771 55.5072 57.937 52.7175 56.1839 50.2545C54.4308 47.7915 52.2004 45.7053 49.625 44.1197C47.0497 42.5341 44.1818 41.4813 41.1916 41.0239C40.5572 40.9183 39.8875 40.9417 39.2414 40.8713C38.5952 40.8009 37.7141 41.1413 37.4791 40.437C37.2441 39.7328 38.1958 39.4863 38.6539 39.1577C42.3869 36.7492 46.317 34.6603 50.4023 32.9133C59.6129 28.9344 71.4318 25.8122 77.9051 26.0587Z" fill="currentColor"/>
<path d="M761.658 138.879C759.051 141.44 756.139 143.671 752.987 145.522C742.179 151.532 727.541 150.816 718.4 143.632C711.257 138.022 707.827 130.287 706.159 121.625C705.554 118.362 705.27 115.048 705.313 111.73C705.313 100.673 705.313 89.6168 705.313 78.5602C705.313 73.6891 707.909 71.1421 712.808 71.1304C714.371 71.1304 715.945 71.1304 717.508 71.1304C722.536 71.1304 725.132 73.6891 725.132 78.6423C725.132 90.3798 725.132 102.188 725.132 113.96C725.141 117.735 726.401 121.401 728.715 124.385C731.03 127.368 734.269 129.502 737.926 130.451C746.984 132.799 757.088 126.766 759.743 117.47C760.292 115.598 760.569 113.657 760.565 111.707C760.565 100.752 760.565 89.8242 760.565 78.924C760.565 73.7478 763.197 71.1421 768.39 71.1304C770.023 71.1304 771.656 71.1304 773.289 71.1304C777.412 71.1304 779.844 73.2196 780.526 77.3043C780.637 78.1406 780.684 78.9843 780.667 79.8278C780.667 99.7345 780.667 119.637 780.667 139.536C780.669 140.768 780.559 141.998 780.338 143.21C780.087 144.595 779.365 145.851 778.295 146.766C777.225 147.681 775.872 148.199 774.463 148.233C772.83 148.292 771.186 148.14 769.564 148.233C765.382 148.597 762.175 145.886 761.857 141.038C761.799 140.51 761.763 139.912 761.658 138.879Z" fill="currentColor"/>
<path d="M549.448 80.4734C552.845 76.993 556.914 74.2377 561.408 72.3746C579.665 65.0152 598.215 74.3347 603.784 93.6545C605.116 98.279 605.789 103.068 605.781 107.88C605.781 118.749 605.781 129.61 605.781 140.463C605.781 145.792 603.338 148.245 598.051 148.257C596.289 148.257 594.526 148.257 592.776 148.257C591.943 148.319 591.105 148.217 590.312 147.956C589.518 147.694 588.784 147.279 588.151 146.734C587.518 146.189 586.999 145.525 586.623 144.779C586.248 144.033 586.023 143.221 585.962 142.388C585.796 141.363 585.705 140.328 585.692 139.29C585.692 129.665 585.692 120.04 585.692 110.416C585.692 107.962 586.267 105.544 585.762 103.044C584.258 95.7085 580.1 90.7201 572.839 88.9595C565.297 87.1872 559.14 90.0276 554.441 96.002C551.897 99.2665 550.56 103.31 550.658 107.446C550.658 118.401 550.658 129.391 550.658 140.416C550.658 145.393 548.062 148.01 543.08 148.081C541.447 148.081 539.814 148.081 538.193 148.081C533.6 147.975 530.933 145.276 530.897 140.71C530.897 137.059 530.897 133.421 530.897 129.782V79.1236C530.897 73.607 533.376 71.1304 538.863 71.1304C540.038 71.1304 541.212 71.1304 542.387 71.1304C546.758 71.1304 549.436 73.8417 549.519 78.1728C549.46 78.748 549.448 79.3348 549.448 80.4734Z" fill="currentColor"/>
<path d="M341.914 80.0508C345.34 76.558 349.479 73.8437 354.05 72.0929C366.186 67.48 379.191 70.1444 387.732 79.2057C393.231 85.0744 396.027 92.1873 397.131 100.016C398.224 107.587 397.789 115.193 397.836 122.799C397.836 128.667 397.836 134.536 397.836 140.405C397.836 143.104 397.178 145.569 394.758 147.201C392.338 148.832 382.939 148.773 380.578 147.083C379.624 146.389 378.863 145.463 378.367 144.393C377.872 143.323 377.658 142.144 377.746 140.968C377.746 129.34 377.746 117.701 377.746 106.049C377.746 97.5748 372.236 90.4619 364.365 88.9243C359.734 88.093 354.959 89.0499 351.008 91.6015C347.056 94.153 344.221 98.1088 343.077 102.669C342.728 104.189 342.571 105.746 342.607 107.305C342.607 117.916 342.607 128.519 342.607 139.114C342.609 140.214 342.523 141.313 342.349 142.4C342.233 143.812 341.628 145.14 340.637 146.154C339.646 147.167 338.331 147.803 336.921 147.952C334.199 148.399 331.425 148.418 328.697 148.01C327.039 147.861 325.503 147.078 324.409 145.825C323.315 144.573 322.747 142.946 322.823 141.285C322.764 136.473 322.823 131.66 322.823 126.848V79.0297C322.823 73.607 325.29 71.1304 330.671 71.1304C331.846 71.1304 333.021 71.1304 334.195 71.1304C338.695 71.1304 341.35 73.7948 341.456 78.2667C341.378 78.8979 341.542 79.535 341.914 80.0508V80.0508Z" fill="currentColor"/>
<path d="M210.979 149.83C201.435 149.785 192.218 146.351 184.975 140.141C177.733 133.931 172.937 125.35 171.446 115.932C169.272 102.117 172.797 89.969 182.806 80.0743C189.139 73.8065 197.116 70.8018 205.962 69.8628C215.178 68.8198 224.468 71.0467 232.208 76.154C238.082 79.91 238.317 82.5978 233.453 87.5158C231.891 89.0886 230.363 90.6967 228.754 92.2108C226.404 94.3939 225.229 94.4879 222.539 92.6803C218.643 89.8879 213.952 88.4227 209.158 88.5018C205.972 88.4519 202.836 89.2898 200.101 90.9214C197.366 92.5531 195.14 94.914 193.673 97.7391C191.669 101.155 190.535 105.009 190.369 108.965C190.203 112.921 191.011 116.856 192.722 120.428C197.421 131.12 210.497 134.677 220.648 128.163C221.822 127.388 222.997 126.472 224.172 125.756C224.957 125.136 225.956 124.851 226.95 124.963C227.945 125.076 228.855 125.576 229.482 126.355C231.973 128.702 234.452 131.144 236.813 133.656C239.433 136.461 239.163 138.468 236.202 140.862C229.092 146.687 220.174 149.858 210.979 149.83V149.83Z" fill="currentColor"/>
<path d="M660.774 103.044C660.774 90.7593 660.774 78.4702 660.774 66.1772C660.805 59.9092 662.97 53.8382 666.914 48.9635C670.858 44.0888 676.346 40.7008 682.474 39.3572C687.106 38.5541 691.829 38.4118 696.501 38.9346C700.343 39.2163 702.446 41.9512 702.481 45.8362C702.481 47.0726 702.481 48.305 702.481 49.5335C702.528 50.432 702.39 51.3304 702.076 52.1736C701.762 53.0168 701.279 53.7869 700.656 54.4367C700.033 55.0864 699.284 55.602 698.454 55.9517C697.624 56.3015 696.732 56.4779 695.831 56.4703C694.339 56.5408 692.836 56.4703 691.332 56.4703C685.458 56.4703 681.569 59.9916 680.958 65.9307C680.382 71.459 680.382 71.459 685.928 71.459C688.536 71.459 691.144 71.459 693.752 71.459C695.433 71.4528 697.047 72.113 698.241 73.2947C699.435 74.4764 700.11 76.0831 700.12 77.762C700.12 79.3818 700.12 81.0133 700.12 82.633C700.148 83.5155 699.994 84.3943 699.667 85.2147C699.34 86.0351 698.848 86.7795 698.221 87.4016C697.594 88.0237 696.845 88.5102 696.022 88.8307C695.199 89.1513 694.318 89.299 693.435 89.2647C689.981 89.2647 686.527 89.3586 683.073 89.2647C681.299 89.206 680.876 89.8633 680.876 91.53C680.876 107.786 680.876 124.031 680.876 140.287C680.976 141.983 680.593 143.672 679.772 145.158C679.253 146.072 678.507 146.835 677.605 147.375C676.703 147.914 675.676 148.209 674.626 148.233C672.546 148.304 670.455 148.233 668.364 148.233C663.394 148.233 660.81 145.675 660.763 140.663C660.763 135.393 660.763 130.099 660.763 124.864V103.044H660.774Z" fill="currentColor"/>
<path d="M614.17 91.1896V59.3929C614.17 54.4163 616.625 51.9866 621.607 51.9749C623.498 51.9749 625.39 51.9749 627.281 51.9749C628.113 51.9702 628.938 52.1308 629.708 52.4472C630.478 52.7636 631.177 53.2296 631.765 53.8182C632.353 54.4067 632.818 55.1061 633.133 55.8757C633.449 56.6453 633.608 57.4698 633.602 58.3014C633.719 62.1278 633.884 65.9542 633.942 69.7806C633.942 71.0482 634.424 71.506 635.681 71.4825C639.723 71.4825 643.764 71.4825 647.805 71.4825C651.847 71.4825 654.337 74.0178 654.349 78.0789C654.349 79.5696 654.349 81.072 654.349 82.5626C654.363 83.3948 654.21 84.2214 653.898 84.9932C653.586 85.765 653.122 86.4663 652.534 87.0554C651.945 87.6445 651.244 88.1093 650.472 88.4223C649.7 88.7353 648.873 88.89 648.04 88.8773C644.14 88.9478 640.216 88.9712 636.292 88.8773C634.565 88.8773 633.942 89.2764 633.942 91.1427C634.036 101.026 633.942 110.908 634.013 120.791C634.013 127.259 636.926 130.181 643.411 130.416C650.766 130.698 652.023 132.001 652.023 139.407C652.023 140.064 652.023 140.71 652.023 141.355C652.023 144.618 649.979 147.412 646.76 147.635C640.474 148.057 634.13 148.363 628.068 145.921C620.608 142.905 616.743 137.059 615.039 129.489C614.46 126.888 614.172 124.231 614.182 121.566C614.193 111.472 614.17 101.331 614.17 91.1896Z" fill="currentColor"/>
<path d="M406.741 90.9432V59.7334C406.741 54.4046 409.185 51.9749 414.495 51.9749C416.328 51.9749 418.149 51.9749 419.981 51.9749C421.463 51.9522 422.903 52.4663 424.035 53.4222C425.166 54.3781 425.913 55.711 426.138 57.1746C426.831 61.1066 426.408 65.0856 426.408 69.0411C426.408 70.8604 426.878 71.5881 428.828 71.506C432.54 71.3769 436.253 71.506 439.965 71.506C440.832 71.4484 441.7 71.5749 442.514 71.8771C443.328 72.1793 444.068 72.6503 444.686 73.2591C445.305 73.868 445.787 74.6008 446.101 75.4093C446.415 76.2178 446.554 77.0837 446.509 77.9498C446.509 79.4405 446.509 80.9429 446.509 82.4335C446.534 83.2981 446.381 84.1586 446.058 84.9614C445.736 85.7642 445.252 86.4921 444.636 87.0999C444.02 87.7076 443.285 88.1822 442.478 88.494C441.67 88.8059 440.807 88.9484 439.942 88.9126C436.159 88.9126 432.376 88.9947 428.593 88.9126C426.948 88.9126 426.478 89.4642 426.478 91.0488C426.478 100.932 426.478 110.815 426.478 120.698C426.478 127.047 428.828 129.688 435.172 130.404C435.495 130.451 435.824 130.451 436.147 130.404C441.516 129.583 445.146 132.693 444.524 138.902C444.441 139.736 444.524 140.592 444.524 141.438C444.552 143.021 443.973 144.555 442.904 145.725C441.836 146.895 440.36 147.612 438.779 147.729C433.446 148.191 428.073 147.758 422.883 146.449C414.084 144.008 409.29 137.975 407.54 129.289C406.968 126.355 406.689 123.37 406.706 120.381C406.745 110.576 406.757 100.763 406.741 90.9432Z" fill="currentColor"/>
<path d="M42.8366 133.503C39.1851 132.711 35.4015 132.755 31.7697 133.632C22.2065 136.191 15.8154 143.891 14.7698 154.008C14.7698 154.548 15.04 155.393 14.3704 155.558C13.7007 155.722 13.3953 154.818 13.0663 154.302C4.53648 140.9 0.0110972 125.344 0.0215023 109.462C0.0319073 93.58 4.57767 78.0306 13.1251 64.6396C13.2895 64.3696 13.4657 64.0879 13.6537 63.818C13.8417 63.548 14.1237 62.8672 14.6171 62.9846C15.1105 63.102 15.0988 63.8414 15.1105 64.3227C15.2314 67.283 15.9354 70.1904 17.1821 72.8786C18.4289 75.5667 20.1939 77.9829 22.3763 79.9889C24.5587 81.9948 27.1156 83.5511 29.9007 84.5688C32.6858 85.5864 35.6443 86.0454 38.6071 85.9195C39.5118 85.9195 40.4047 85.6378 41.3093 85.6144C42.2139 85.5909 43.0128 84.8514 43.518 85.5205C44.0232 86.1895 43.1655 86.9407 42.8131 87.598C40.8989 91.0732 39.4681 94.7931 38.5602 98.6546C35.8333 109.833 37.4143 121.628 42.9893 131.695C43.2712 132.235 43.9056 132.728 43.4945 133.433C43.4122 133.573 42.9188 133.503 42.8366 133.503Z" fill="currentColor"/>
<path d="M18.4121 155.299C18.4493 150.269 20.4763 145.458 24.0506 141.916C27.625 138.374 32.4567 136.387 37.4914 136.39C42.5733 136.39 47.4471 138.407 51.0406 141.998C54.6341 145.588 56.6529 150.457 56.6529 155.534C56.6529 160.611 54.6341 165.481 51.0406 169.071C47.4471 172.661 42.5733 174.678 37.4914 174.678C28.1162 174.889 18.4121 164.936 18.4121 155.299Z" fill="currentColor"/>
<path d="M56.6523 63.4189C57.2514 73.4427 47.7588 82.5274 37.5495 82.4218C29.0202 82.3396 18.6699 75.5789 18.4819 63.3954C18.341 54.1229 28.3975 44.0991 37.7022 44.2282C49.9205 44.3925 57.3219 54.7684 56.6523 63.4189Z" fill="currentColor"/>
</g>
<defs>
<clipPath id="clip0_640_499">
<rect width="810" height="167" fill="white" transform="translate(0.0136719 26)"/>
</clipPath>
</defs>
</svg>

<svg xmlns="http://www.w3.org/2000/svg" width="811" height="220" fill="none">
    <g fill="currentColor" clip-path="url(#a)">
        <path
            d="M80.396 193.012c-4.065-.435-8.154-.669-12.183-1.444a84.175 84.175 0 0 1-30.111-12.031 9.214 9.214 0 0 1-.928-.704c-.094-.07-.118-.223-.27-.552 1.433-.188 2.795-.352 4.158-.563a22.498 22.498 0 0 0 14.921-9.283 22.458 22.458 0 0 0 3.677-17.173c-.106-.564-.435-1.303 0-1.679.434-.375 1.175.223 1.727.505a45.55 45.55 0 0 0 23.062 5.693 45.994 45.994 0 0 0 31.72-13.217c7.66-7.312 19.126-7.453 26.41-.305a18.458 18.458 0 0 1 5.64 13.098 18.445 18.445 0 0 1-5.381 13.206 82.842 82.842 0 0 1-41.648 22.618c-4.66.879-9.367 1.49-14.098 1.831h-6.696ZM810.002 143.832a7.294 7.294 0 0 1-7.906 4.437c-1.68-.153-3.384 0-5.076-.059a6.54 6.54 0 0 1-4.776-1.901 6.525 6.525 0 0 1-1.92-4.766V58.29a6.486 6.486 0 0 1 1.794-4.624 6.5 6.5 0 0 1 4.538-2.008 57.07 57.07 0 0 1 7.225 0 6.793 6.793 0 0 1 6.121 4.695v87.479ZM494.771 117.388h-25.435c-2.126 0-2.185.105-1.48 2.054 2.996 8.216 11.595 13.169 20.266 12.394a44.226 44.226 0 0 0 17.622-5.07 4.127 4.127 0 0 1 5.24.598 68.062 68.062 0 0 1 7.049 7.583c1.88 2.57 1.633 4.061-.917 5.927a48.853 48.853 0 0 1-35.245 9.39 44.448 44.448 0 0 1-14.285-3.779 33.877 33.877 0 0 1-10.884-7.655 33.822 33.822 0 0 1-7.091-11.254c-4.289-11.151-5.158-22.618-.752-33.886 5.521-14.156 16.107-22.5 31.274-24.367a48.29 48.29 0 0 1 20.512 1.749c14.028 4.436 21.147 14.578 23.638 28.545.697 4.168.96 8.396.787 12.618-.141 3.721-1.586 5.153-5.334 5.164h-25.047l.082-.011Zm-7.883-17.384h17.023c1.645 0 1.904-.551 1.41-1.96a17.095 17.095 0 0 0-6.168-8.345c-3.806-2.747-8.071-3.087-12.629-2.864-8.154.423-13.863 4.26-17.623 11.327-.775 1.455-.493 1.866 1.175 1.842h16.812ZM317.042 112.798c.376 13.803-10.773 29.555-26.763 35.048a39.09 39.09 0 0 1-43.771-13.5 39.01 39.01 0 0 1-6.84-14.67c-3.067-12.993-1.175-25.247 7.378-35.904a36.72 36.72 0 0 1 25.94-13.932c10.773-1.057 20.653 1.173 29.183 7.934 10.068 8.028 14.791 18.71 14.873 35.024Zm-19.091-2.5a35.804 35.804 0 0 0-.423-6.021 20.184 20.184 0 0 0-6.171-10.856 20.213 20.213 0 0 0-11.381-5.154c-3.934-.32-7.871.59-11.264 2.604a19.003 19.003 0 0 0-7.674 8.64c-2.35 4.965-2.42 10.177-1.633 15.459a19.517 19.517 0 0 0 8.57 13.194 19.557 19.557 0 0 0 15.526 2.604 19.796 19.796 0 0 0 10.882-7.658 19.76 19.76 0 0 0 3.568-12.812ZM77.905 26.059c28.971.305 48.685 8.486 65.039 24.578a18.57 18.57 0 0 1 .382 26.274 18.609 18.609 0 0 1-26.299.382 47.723 47.723 0 0 0-23.85-13.064 46.256 46.256 0 0 0-31.438 4.519c-.563.293-1.174.997-1.75.645-.787-.481-.13-1.314 0-1.96a22.55 22.55 0 0 0-3.805-17.179 22.583 22.583 0 0 0-14.992-9.23c-.635-.106-1.304-.082-1.95-.153-.647-.07-1.528.27-1.763-.434-.235-.704.717-.95 1.175-1.28a78.871 78.871 0 0 1 11.748-6.244c9.21-3.979 21.03-7.1 27.503-6.854ZM761.658 138.879a44.603 44.603 0 0 1-8.671 6.643c-10.808 6.01-25.446 5.294-34.587-1.89-7.143-5.61-10.573-13.345-12.241-22.007a50.674 50.674 0 0 1-.846-9.895V78.56c0-4.87 2.596-7.418 7.495-7.43h4.7c5.028 0 7.624 2.56 7.624 7.512v35.318a17.079 17.079 0 0 0 12.794 16.491c9.058 2.348 19.162-3.685 21.817-12.981.549-1.872.826-3.813.822-5.763V78.924c0-5.176 2.632-7.782 7.825-7.794h4.899c4.123 0 6.555 2.09 7.237 6.174.111.837.158 1.68.141 2.524v59.708a20.3 20.3 0 0 1-.329 3.674 6.114 6.114 0 0 1-5.875 5.023c-1.633.059-3.277-.093-4.899 0-4.182.364-7.389-2.347-7.707-7.195-.058-.528-.094-1.126-.199-2.159ZM549.448 80.473a35.953 35.953 0 0 1 11.96-8.098c18.257-7.36 36.807 1.96 42.376 21.28a51.09 51.09 0 0 1 1.997 14.225v32.583c0 5.329-2.443 7.782-7.73 7.794h-5.275a6.372 6.372 0 0 1-4.625-1.523 6.351 6.351 0 0 1-2.189-4.346 21.022 21.022 0 0 1-.27-3.098v-28.874c0-2.454.575-4.872.07-7.372-1.504-7.335-5.662-12.324-12.923-14.084-7.542-1.773-13.699 1.068-18.398 7.042a17.928 17.928 0 0 0-3.783 11.444v32.97c0 4.977-2.596 7.594-7.578 7.665h-4.887c-4.593-.106-7.26-2.805-7.296-7.371V79.124c0-5.517 2.479-7.994 7.966-7.994h3.524c4.371 0 7.049 2.712 7.132 7.043-.059.575-.071 1.162-.071 2.3ZM341.914 80.05a34.068 34.068 0 0 1 12.136-7.957c12.136-4.613 25.141-1.949 33.682 7.113 5.499 5.868 8.295 12.981 9.399 20.81 1.093 7.571.658 15.177.705 22.783v17.606c0 2.699-.658 5.164-3.078 6.796-2.42 1.631-11.819 1.572-14.18-.118a6.927 6.927 0 0 1-2.832-6.115v-34.919c0-8.474-5.51-15.587-13.381-17.125a18.574 18.574 0 0 0-13.357 2.677 18.546 18.546 0 0 0-7.931 11.068 18.776 18.776 0 0 0-.47 4.636v31.809c.002 1.1-.084 2.199-.258 3.286a6.083 6.083 0 0 1-5.428 5.552 26.53 26.53 0 0 1-8.224.058 6.46 6.46 0 0 1-5.874-6.725c-.059-4.812 0-9.625 0-14.437V79.03c0-5.423 2.467-7.9 7.848-7.9h3.524c4.5 0 7.155 2.665 7.261 7.137a2.522 2.522 0 0 0 .458 1.784Z" />
        <path
            d="M210.979 149.83a40.243 40.243 0 0 1-26.004-9.689 40.166 40.166 0 0 1-13.529-24.209c-2.174-13.815 1.351-25.963 11.36-35.858 6.333-6.267 14.31-9.272 23.156-10.211a39.575 39.575 0 0 1 26.246 6.291c5.874 3.756 6.109 6.444 1.245 11.362-1.562 1.573-3.09 3.18-4.699 4.695-2.35 2.183-3.525 2.277-6.215.47a22.336 22.336 0 0 0-13.381-4.18 17.153 17.153 0 0 0-9.057 2.42 17.134 17.134 0 0 0-6.428 6.818 24.186 24.186 0 0 0-.951 22.689c4.699 10.692 17.775 14.249 27.926 7.735 1.174-.775 2.349-1.691 3.524-2.407a3.797 3.797 0 0 1 5.31.599c2.491 2.347 4.97 4.789 7.331 7.301 2.62 2.805 2.35 4.812-.611 7.206a39.61 39.61 0 0 1-25.223 8.968ZM660.774 103.044V66.177a27.583 27.583 0 0 1 6.14-17.214 27.625 27.625 0 0 1 15.56-9.606 49.736 49.736 0 0 1 14.027-.422c3.842.281 5.945 3.016 5.98 6.901v3.697a6.58 6.58 0 0 1-1.825 4.904 6.602 6.602 0 0 1-4.825 2.033c-1.492.07-2.995 0-4.499 0-5.874 0-9.763 3.522-10.374 9.46-.576 5.529-.576 5.529 4.97 5.529h7.824a6.337 6.337 0 0 1 6.368 6.303v4.871a6.422 6.422 0 0 1-1.899 4.769 6.441 6.441 0 0 1-4.786 1.863c-3.454 0-6.908.094-10.362 0-1.774-.059-2.197.598-2.197 2.265v48.757a8.98 8.98 0 0 1-1.104 4.871 6.079 6.079 0 0 1-5.146 3.075c-2.08.071-4.171 0-6.262 0-4.97 0-7.554-2.558-7.601-7.57v-37.619h.011ZM614.17 91.19V59.393c0-4.977 2.455-7.406 7.437-7.418h5.674a6.293 6.293 0 0 1 4.484 1.843 6.273 6.273 0 0 1 1.837 4.483c.117 3.827.282 7.653.34 11.48 0 1.267.482 1.725 1.739 1.701h12.124c4.042 0 6.532 2.536 6.544 6.597v4.484a6.206 6.206 0 0 1-3.877 5.86 6.22 6.22 0 0 1-2.432.454c-3.9.07-7.824.094-11.748 0-1.727 0-2.35.4-2.35 2.266.094 9.883 0 19.765.071 29.648 0 6.468 2.913 9.39 9.398 9.625 7.355.282 8.612 1.585 8.612 8.991v1.948c0 3.263-2.044 6.057-5.263 6.28-6.286.422-12.63.728-18.692-1.714-7.46-3.016-11.325-8.862-13.029-16.432a35.842 35.842 0 0 1-.857-7.923c.011-10.094-.012-20.235-.012-30.376ZM406.741 90.943v-31.21c0-5.328 2.444-7.758 7.754-7.758h5.486a6.133 6.133 0 0 1 6.157 5.2c.693 3.932.27 7.91.27 11.866 0 1.82.47 2.547 2.42 2.465 3.712-.13 7.425 0 11.137 0a6.15 6.15 0 0 1 6.136 3.903c.314.809.453 1.675.408 2.54v4.484a6.298 6.298 0 0 1-4.031 6.06 6.316 6.316 0 0 1-2.536.42c-3.783 0-7.566.082-11.349 0-1.645 0-2.115.551-2.115 2.136v29.649c0 6.349 2.35 8.99 8.694 9.706.323.047.652.047.975 0 5.369-.821 8.999 2.289 8.377 8.498-.083.834 0 1.69 0 2.536a6.205 6.205 0 0 1-5.745 6.291 48.046 48.046 0 0 1-15.896-1.28c-8.799-2.441-13.593-8.474-15.343-17.16a45.216 45.216 0 0 1-.834-8.908c.039-9.805.051-19.618.035-29.438ZM42.837 133.503a24.776 24.776 0 0 0-11.067.129c-9.564 2.559-15.955 10.259-17 20.376 0 .54.27 1.385-.4 1.55-.67.164-.975-.74-1.304-1.256a83.408 83.408 0 0 1 .059-89.662c.165-.27.34-.552.529-.822.188-.27.47-.95.963-.833.493.117.482.856.493 1.338a22.52 22.52 0 0 0 7.266 15.666 22.562 22.562 0 0 0 16.231 5.93c.905 0 1.798-.281 2.702-.305.905-.023 1.704-.763 2.209-.094.505.67-.352 1.42-.705 2.078a43.6 43.6 0 0 0-4.253 11.057 45.796 45.796 0 0 0 4.43 33.04c.281.54.916 1.033.505 1.738-.083.14-.576.07-.658.07Z" />
        <path
            d="M18.412 155.299a19.04 19.04 0 0 1 5.639-13.383 19.08 19.08 0 0 1 13.44-5.526c5.082 0 9.956 2.017 13.55 5.608a19.133 19.133 0 0 1 0 27.073 19.171 19.171 0 0 1-13.55 5.607c-9.375.211-19.079-9.742-19.079-19.379ZM56.652 63.419c.6 10.024-8.893 19.108-19.102 19.003-8.53-.082-18.88-6.843-19.068-19.027-.141-9.272 9.916-19.296 19.22-19.167 12.218.164 19.62 10.54 18.95 19.19Z" />
    </g>
    <defs>
        <clipPath id="a">
            <path fill="#fff" d="M.014 26h810v167h-810z" />
        </clipPath>
    </defs>
</svg>
